X:1
T:Greensleeves
M:3/4
L:1/8
K:Am
A2|:"Am"c2 d2 e2|"C"f>e f2 g2|"Am"a2 a2 ^g2|"E"a2 e2 e2|
"F"f2 d2 d2|"C"e>d c2 B2|"Am"A2 A2 ^G2|"E7"A4 A2:|
|:"C"g2 g2 g2|"C"g>f e2 e2|"Am"f2 d2 d2|"E"e>d c2 B2|
"Am"A2 A2 ^G2|"E7"A2 e2 e2|"C"g2 g>f e2|
"Am"d2 c2 B2|"Am"A2 A2 ^G2|"E7"A4:|
